public/whatsapp.svg

<svg width="48" height="48" viewBox="0 0 48 48" fill="none" xmlns="http://www.w3.org/2000/svg">
<rect x="1" y="1" width="46" height="46" rx="7" fill="white"/>
<rect x="1" y="1" width="46" height="46" rx="7" stroke="#1958A8" stroke-width="2"/>
<circle cx="24" cy="24" r="24" fill="white"/>
<g clip-path="url(#clip0_168_689)">
<path fill-rule="evenodd" clip-rule="evenodd" d="M30.9852 28.9453C30.696 29.764 29.5464 30.4412 28.6296 30.6393C28.002 30.7725 27.1836 30.8779 24.426 29.7352C21.3288 28.452 17.028 23.8812 17.028 20.8395C17.028 19.291 17.9208 17.4879 19.482 17.4879C20.2332 17.4879 20.3988 17.5025 20.646 18.0955C20.9352 18.7941 21.6408 20.5153 21.7248 20.6918C22.0716 21.4156 21.372 21.8393 20.8644 22.4695C20.7024 22.6592 20.5188 22.8643 20.724 23.2172C20.928 23.5629 21.6336 24.7129 22.6704 25.6359C24.0096 26.8291 25.0956 27.21 25.4844 27.3721C25.7736 27.4921 26.1192 27.4641 26.3304 27.2385C26.598 26.9492 26.9304 26.4692 27.2688 25.9963C27.5076 25.6578 27.8112 25.6155 28.1292 25.7355C28.344 25.81 31.074 27.0778 31.1892 27.2807C31.2744 27.4283 31.2744 28.1267 30.9852 28.9453ZM24.0024 12H23.9964C17.3808 12 12 17.3824 12 24C12 26.624 12.846 29.0584 14.2848 31.033L12.7896 35.492L17.4012 34.0184C19.2984 35.2739 21.5628 36 24.0024 36C30.618 36 36 30.6176 36 24C36 17.3824 30.618 12 24.0024 12Z" fill="#1857A8"/>
</g>
<defs>
<clipPath id="clip0_168_689">
<rect width="24" height="24" fill="white" transform="translate(12 12)"/>
</clipPath>
</defs>
</svg>

<svg xmlns="http://www.w3.org/2000/svg" width="48" height="48" fill="none">
    <rect width="46" height="46" x="1" y="1" fill="#fff" rx="7"/>
    <rect width="46" height="46" x="1" y="1" stroke="#1958A8" stroke-width="2" rx="7"/>
    <circle cx="24" cy="24" r="24" fill="#fff"/>
    <g clip-path="url(#a)">
        <path fill="#1857A8" fill-rule="evenodd" d="M30.985 28.945c-.289.819-1.439 1.496-2.355 1.694-.628.134-1.446.239-4.204-.904-3.097-1.283-7.398-5.854-7.398-8.895 0-1.549.893-3.352 2.454-3.352.751 0 .917.015 1.164.608.29.698.995 2.42 1.079 2.596.347.724-.353 1.147-.86 1.777-.163.19-.346.395-.141.748.204.346.91 1.496 1.946 2.419 1.34 1.193 2.426 1.574 2.814 1.736.29.12.635.092.846-.134.268-.289.6-.769.939-1.242.239-.338.542-.38.86-.26.215.074 2.945 1.342 3.06 1.545.085.147.085.846-.204 1.664M24.002 12h-.006C17.381 12 12 17.382 12 24c0 2.624.846 5.058 2.285 7.033l-1.495 4.459 4.611-1.474A11.9 11.9 0 0 0 24.002 36C30.618 36 36 30.618 36 24s-5.382-12-11.998-12" clip-rule="evenodd"/>
    </g>
    <defs>
        <clipPath id="a">
            <path fill="#fff" d="M12 12h24v24H12z"/>
        </clipPath>
    </defs>
</svg>
